images/lock.svg

<svg width="8" height="10" viewBox="0 0 8 10" fill="none" xmlns="http://www.w3.org/2000/svg">
<path fill-rule="evenodd" clip-rule="evenodd" d="M7.80556 5.18227C7.67589 5.0607 7.51854 5.00002 7.33326 5.00002H2.22217V2.91671C2.22217 2.45656 2.39581 2.06382 2.74306 1.73828C3.09033 1.4128 3.50928 1.25003 4.00006 1.25003C4.49079 1.25003 4.90982 1.41278 5.25694 1.73828C5.60421 2.06382 5.77786 2.45658 5.77786 2.91671C5.77786 3.02952 5.82181 3.12716 5.90969 3.20962C5.99777 3.2921 6.10197 3.33335 6.22218 3.33335H6.66684C6.78712 3.33335 6.89128 3.2921 6.97935 3.20962C7.06706 3.12716 7.11119 3.02952 7.11119 2.91671C7.11119 2.11367 6.80677 1.42694 6.19805 0.856152C5.58923 0.285338 4.85652 0 4.00006 0C3.14352 0 2.41089 0.285338 1.80202 0.856129C1.19325 1.42685 0.888862 2.11364 0.888862 2.91669V5H0.666665C0.481537 5 0.324089 5.06082 0.194444 5.18224C0.0647984 5.30367 0 5.45132 0 5.62495V9.37501C0 9.5487 0.0648227 9.69628 0.194444 9.81778C0.324089 9.93921 0.481537 10 0.666665 10H7.33326C7.51854 10 7.67603 9.93921 7.80556 9.81778C7.93508 9.69628 8 9.5487 8 9.37501V5.62497C8.0001 5.45135 7.93525 5.30385 7.80556 5.18227ZM4.47412 7.79949C4.6866 7.68421 4.82955 7.4688 4.82955 7.22209C4.82955 6.8539 4.51117 6.55542 4.11843 6.55542C3.72569 6.55542 3.40731 6.8539 3.40731 7.22209C3.40731 7.4689 3.55038 7.68439 3.76301 7.79964V8.44452H4.47412V7.79949Z" fill="#FFAFAF"/>
<path fill-rule="evenodd" clip-rule="evenodd" d="M5.03693 1.56047C5.11319 1.61306 5.1865 1.67233 5.25686 1.73828C5.60411 2.06382 5.77776 2.45656 5.77776 2.91671V5.00002L5.03693 5.00003H7.33984C7.33765 5.00001 7.33546 5 7.33326 5H7.11106V2.91669C7.11106 2.11364 6.80667 1.42685 6.1979 0.85613C5.85108 0.530998 5.4641 0.298485 5.03693 0.158569V1.56047Z" fill="#FFAFAF"/>
</svg>

<svg width="8" height="10" fill="none" xmlns="http://www.w3.org/2000/svg"><path fill-rule="evenodd" clip-rule="evenodd" d="M7.806 5.182A.665.665 0 007.333 5h-5.11V2.917c0-.46.173-.853.52-1.179A1.772 1.772 0 014 1.25c.49 0 .91.163 1.257.488.347.326.52.719.52 1.179 0 .113.045.21.133.293a.442.442 0 00.312.123h.445c.12 0 .224-.04.312-.123a.39.39 0 00.132-.293c0-.803-.304-1.49-.913-2.06C5.59.284 4.857 0 4 0c-.856 0-1.59.285-2.198.856-.609.57-.913 1.258-.913 2.06V5H.667a.666.666 0 00-.473.182.584.584 0 00-.194.443v3.75c0 .174.065.321.194.443.13.121.288.182.473.182h6.666c.186 0 .343-.06.473-.182A.585.585 0 008 9.375v-3.75a.584.584 0 00-.194-.443zM4.474 7.8a.66.66 0 00.356-.577c0-.368-.319-.667-.712-.667-.392 0-.71.299-.71.667a.66.66 0 00.355.578v.645h.711v-.646z" fill="#FFAFAF"/><path fill-rule="evenodd" clip-rule="evenodd" d="M5.037 1.56c.076.053.15.112.22.178.347.326.52.719.52 1.179V5h-.74H7.34a.72.72 0 00-.007 0h-.222V2.917c0-.803-.304-1.49-.913-2.06A3.092 3.092 0 005.037.158V1.56z" fill="#FFAFAF"/></svg>
